X: 22283
T: La Patte De Mouton
R: reel
M: 4/4
K: Gmajor
GA|BGBG DGBG|AGFG ABcA|BGBG DGBG|AGFA G2 GA|
BD D2 BDAD|AD D2 ABcA|BD D2 DGBG|AGFA G2 (3DEF||
GABc d2 de|=f2 fg gedc|=f2 fg gedc|BGAF G2 (3DEF|
GABc d2 de|=f2 fg gedc|=f2 fg gedc|BGAF G2 GA||

